static/images/icons/previous.svg

<?xml version='1.0' encoding='utf-8'?>
<svg version="1.1" xmlns="http://www.w3.org/2000/svg" viewBox="0 0 129 129" xmlns:xlink="http://www.w3.org/1999/xlink" enable-background="new 0 0 129 129">
  <g>
    <path fill="#04a763" d="m88.6,121.3c0.8,0.8 1.8,1.2 2.9,1.2s2.1-0.4 2.9-1.2c1.6-1.6 1.6-4.2 0-5.8l-51-51 51-51c1.6-1.6 1.6-4.2 0-5.8s-4.2-1.6-5.8,0l-54,53.9c-1.6,1.6-1.6,4.2 0,5.8l54,53.9z"/>
  </g>
</svg>

<?xml version="1.0" encoding="UTF-8" standalone="no"?>
<!DOCTYPE svg PUBLIC "-//W3C//DTD SVG 1.1//EN" "http://www.w3.org/Graphics/SVG/1.1/DTD/svg11.dtd">
<svg width="100%" height="100%" viewBox="0 0 129 129" version="1.1" xmlns="http://www.w3.org/2000/svg" xmlns:xlink="http://www.w3.org/1999/xlink" xml:space="preserve" xmlns:serif="http://www.serif.com/" style="fill-rule:evenodd;clip-rule:evenodd;stroke-linejoin:round;stroke-miterlimit:2;">
    <g>
        <path d="M88.6,121.3C89.4,122.1 90.4,122.5 91.5,122.5C92.6,122.5 93.6,122.1 94.4,121.3C96,119.7 96,117.1 94.4,115.5L43.4,64.5L94.4,13.5C96,11.9 96,9.3 94.4,7.7C92.8,6.1 90.2,6.1 88.6,7.7L34.6,61.6C33,63.2 33,65.8 34.6,67.4L88.6,121.3Z" style="fill:rgb(40,83,125);fill-rule:nonzero;"/>
    </g>
</svg>
